assets/images/strong.svg

<svg width="47" height="56" viewBox="0 0 47 56" fill="none" xmlns="http://www.w3.org/2000/svg">
<path d="M16.4667 47.9095V41.6209L12.8975 37.5418V30.7433C12.8975 28.5338 14.767 26.6642 16.9765 26.6642H20.5458C21.7355 26.6642 22.7553 27.684 22.7553 28.8738V29.0437C22.7553 30.0635 21.9054 30.9133 20.8857 30.9133H17.9963V32.6129C17.9963 32.6129 18.1663 33.6327 21.3956 34.4825C24.6248 35.3323 24.9648 38.9015 24.9648 38.9015" stroke="#FD6709" stroke-width="2" stroke-miterlimit="10" stroke-linecap="round" stroke-linejoin="round"/>
<path d="M25.8148 17.9962C27.1745 17.9962 28.3642 19.1859 28.3642 20.5456V28.5339C28.3642 29.8936 27.1745 31.0833 25.8148 31.0833C24.4551 31.0833 23.2654 29.8936 23.2654 28.5339V20.5456C23.2654 19.016 24.4551 17.9962 25.8148 17.9962Z" stroke="#FD6709" stroke-width="2" stroke-miterlimit="10" stroke-linecap="round" stroke-linejoin="round"/>
<path d="M30.7435 20.8856C32.1032 20.8856 33.293 22.0753 33.293 23.435V28.5338C33.293 29.8935 32.1032 31.0833 30.7435 31.0833C29.3838 31.0833 28.1941 29.8935 28.1941 28.5338V23.435C28.1941 21.9053 29.3838 20.8856 30.7435 20.8856Z" stroke="#FD6709" stroke-width="2" stroke-miterlimit="10" stroke-linecap="round" stroke-linejoin="round"/>
<path d="M18.3362 26.1544V20.3757C18.3362 19.016 19.5259 17.8262 20.8856 17.8262C22.2453 17.8262 23.435 19.016 23.435 20.3757V27.1741" stroke="#FD6709" stroke-width="2" stroke-miterlimit="10" stroke-linecap="round" stroke-linejoin="round"/>
<path d="M13.4075 28.0239V22.5852C13.4075 21.2255 14.5972 20.0357 15.9569 20.0357C17.3166 20.0357 18.5063 21.2255 18.5063 22.5852V25.6445" stroke="#FD6709" stroke-width="2" stroke-miterlimit="10" stroke-linecap="round" stroke-linejoin="round"/>
<path d="M33.1233 28.8738V37.3719C33.1233 37.3719 33.1233 40.6012 30.064 41.281V47.9095" stroke="#FD6709" stroke-width="2" stroke-miterlimit="10" stroke-linecap="round" stroke-linejoin="round"/>
<path d="M36.1821 47.9095L42.8106 39.7513H38.5616L45.7 23.6049L38.0517 25.3046L40.6011 11.1977L32.103 14.597L23.0951 1L14.257 14.597L5.75894 11.1977L8.30837 25.3046L1 23.6049L8.30837 39.7513H3.54943L10.1779 47.9095" stroke="#FD6709" stroke-width="2" stroke-miterlimit="10" stroke-linecap="round" stroke-linejoin="round"/>
<path d="M8.30835 47.9095H37.7118" stroke="#FD6709" stroke-width="2" stroke-miterlimit="10" stroke-linecap="round" stroke-linejoin="round"/>
<path d="M12.2624 54.0795C12.8367 54.0795 13.3022 53.614 13.3022 53.0398C13.3022 52.4655 12.8367 52 12.2624 52C11.6882 52 11.2227 52.4655 11.2227 53.0398C11.2227 53.614 11.6882 54.0795 12.2624 54.0795Z" fill="#FD6709"/>
<path d="M5.40012 55.1193C5.97437 55.1193 6.4399 54.6538 6.4399 54.0796C6.4399 53.5053 5.97437 53.0398 5.40012 53.0398C4.82587 53.0398 4.36035 53.5053 4.36035 54.0796C4.36035 54.6538 4.82587 55.1193 5.40012 55.1193Z" fill="#FD6709"/>
<path d="M20.165 55.7431C20.7393 55.7431 21.2048 55.2776 21.2048 54.7034C21.2048 54.1291 20.7393 53.6636 20.165 53.6636C19.5908 53.6636 19.1252 54.1291 19.1252 54.7034C19.1252 55.2776 19.5908 55.7431 20.165 55.7431Z" fill="#FD6709"/>
<path d="M32.8498 54.0795C33.4241 54.0795 33.8896 53.614 33.8896 53.0398C33.8896 52.4655 33.4241 52 32.8498 52C32.2756 52 31.8101 52.4655 31.8101 53.0398C31.8101 53.614 32.2756 54.0795 32.8498 54.0795Z" fill="#FD6709"/>
<path d="M25.9873 55.1193C26.5615 55.1193 27.0271 54.6538 27.0271 54.0796C27.0271 53.5053 26.5615 53.0398 25.9873 53.0398C25.413 53.0398 24.9475 53.5053 24.9475 54.0796C24.9475 54.6538 25.413 55.1193 25.9873 55.1193Z" fill="#FD6709"/>
<path d="M40.9604 55.7431C41.5347 55.7431 42.0002 55.2776 42.0002 54.7034C42.0002 54.1291 41.5347 53.6636 40.9604 53.6636C40.3862 53.6636 39.9207 54.1291 39.9207 54.7034C39.9207 55.2776 40.3862 55.7431 40.9604 55.7431Z" fill="#FD6709"/>
</svg>

<svg width="47" height="56" fill="none" xmlns="http://www.w3.org/2000/svg"><path d="M16.467 47.91v-6.29l-3.57-4.078v-6.799c0-2.21 1.87-4.079 4.08-4.079h3.569c1.19 0 2.21 1.02 2.21 2.21v.17c0 1.02-.85 1.87-1.87 1.87h-2.89v1.699s.17 1.02 3.4 1.87c3.229.85 3.569 4.419 3.569 4.419m.85-20.906c1.36 0 2.55 1.19 2.55 2.55v7.988c0 1.36-1.19 2.55-2.55 2.55-1.36 0-2.55-1.19-2.55-2.55v-7.988c0-1.53 1.19-2.55 2.55-2.55z" stroke="#FD6709" stroke-width="2" stroke-miterlimit="10" stroke-linecap="round" stroke-linejoin="round"/><path d="M30.744 20.886c1.36 0 2.549 1.19 2.549 2.549v5.099c0 1.36-1.19 2.55-2.55 2.55-1.36 0-2.549-1.19-2.549-2.55v-5.099c0-1.53 1.19-2.55 2.55-2.55zm-12.408 5.268v-5.778c0-1.36 1.19-2.55 2.55-2.55 1.36 0 2.549 1.19 2.549 2.55v6.798" stroke="#FD6709" stroke-width="2" stroke-miterlimit="10" stroke-linecap="round" stroke-linejoin="round"/><path d="M13.408 28.024v-5.439c0-1.36 1.19-2.55 2.549-2.55 1.36 0 2.55 1.19 2.55 2.55v3.06m14.616 3.229v8.498s0 3.23-3.059 3.909v6.629" stroke="#FD6709" stroke-width="2" stroke-miterlimit="10" stroke-linecap="round" stroke-linejoin="round"/><path d="M36.182 47.91l6.629-8.159h-4.25L45.7 23.605l-7.648 1.7 2.55-14.107-8.499 3.399L23.095 1l-8.838 13.597-8.498-3.4 2.55 14.108L1 23.605 8.308 39.75H3.55l6.629 8.159m-1.871.001h29.404" stroke="#FD6709" stroke-width="2" stroke-miterlimit="10" stroke-linecap="round" stroke-linejoin="round"/><path d="M12.262 54.08a1.04 1.04 0 100-2.08 1.04 1.04 0 000 2.08zM5.4 55.12a1.04 1.04 0 100-2.08 1.04 1.04 0 000 2.08zm14.765.623a1.04 1.04 0 100-2.08 1.04 1.04 0 000 2.08zM32.85 54.08a1.04 1.04 0 100-2.08 1.04 1.04 0 000 2.08zm-6.863 1.04a1.04 1.04 0 100-2.08 1.04 1.04 0 000 2.08zm14.973.623a1.04 1.04 0 100-2.08 1.04 1.04 0 000 2.08z" fill="#FD6709"/></svg>
